X:667
T:She'll be coming round the mountain
C:anon.
M:2/2
L:1/4
S:Colin Hume's website,  colinhume.com  - chords can also be printed below the stave.
Q:1/2=120
K:G
DE | "G"GGGG | "/"EDB,D | "G"G4 | "/"z2 GA |\
"G"BBBB | "/"dddB | "D7"A4 | "/"z2 dc |
"G"BBBB | "G7"AG-G2 | "C"GGGG | "Cm"cc-c2 |\
"G"BBBB | "D7"AAAA | "G"G4 | "/"z2 |]

